polaris-icons/icons/newicons/AnalyticsFunnelMinor.svg

<svg width="20" height="20" viewBox="0 0 20 20" fill="none" xmlns="http://www.w3.org/2000/svg">
<path fill-rule="evenodd" clip-rule="evenodd" d="M3.03532 4.6734C2.74207 3.85882 3.34567 3 4.21143 3H15.7886C16.6544 3 17.258 3.85882 16.9647 4.6734L12.9437 15.8428C12.6938 16.5371 12.0351 17 11.2972 17H8.70284C7.96489 17 7.30625 16.5371 7.05629 15.8428L3.03532 4.6734ZM4.56713 4.5L5.46713 7H14.5329L15.4329 4.5H4.56713ZM6.99714 11.25L6.00713 8.5H13.9929L13.0029 11.25L13 11.25H7L6.99714 11.25ZM7.53713 12.75L8.46762 15.3347C8.50333 15.4339 8.59742 15.5 8.70284 15.5H11.2972C11.4026 15.5 11.4967 15.4339 11.5324 15.3347L12.4629 12.75H7.53713Z" fill="black"/>
</svg>

<svg viewBox="0 0 20 20" fill="none" xmlns="http://www.w3.org/2000/svg"><path fill-rule="evenodd" clip-rule="evenodd" d="M3.035 4.673a1.25 1.25 0 0 1 1.176-1.673h11.578c.865 0 1.469.859 1.176 1.673l-4.021 11.17a1.75 1.75 0 0 1-1.647 1.157h-2.594a1.75 1.75 0 0 1-1.647-1.157l-4.02-11.17Zm1.532-.173.9 2.5h9.066l.9-2.5h-10.866Zm2.43 6.75-.99-2.75h7.986l-.99 2.75h-6.006Zm.54 1.5.93 2.585c.036.099.13.165.236.165h2.594a.25.25 0 0 0 .235-.165l.93-2.585h-4.925Z" fill="#5C5F62"/></svg>
